packages/core/src/svgs/tokens/branded/XFT.svg

<svg width="24" height="24" viewBox="0 0 24 24" fill="none" xmlns="http://www.w3.org/2000/svg">
<path d="M18.2395 12.0032C18.2392 13.2817 17.8462 14.5291 17.1136 15.5767C16.381 16.6245 15.3442 17.4217 14.1434 17.8608C12.9429 18.2998 11.6363 18.3594 10.4007 18.0313C9.16503 17.7033 8.06003 17.0036 7.23519 16.0269C6.97941 16.1705 6.72365 16.3389 6.46164 16.5447C5.9054 17.0502 5.47769 17.6811 5.214 18.385C5.10794 18.6282 5.02684 18.8653 4.96447 19.0837C6.75733 20.8729 9.16343 21.9136 11.695 21.9949C14.2267 22.0761 16.6945 21.1917 18.5984 19.5211C20.5022 17.8504 21.6997 15.5183 21.9482 12.9977C22.1967 10.4769 21.4775 7.95606 19.9363 5.94589C19.7916 6.62667 19.4663 7.25591 18.9944 7.76746C18.5163 8.21901 17.9296 8.53921 17.2913 8.69696C17.9124 9.68768 18.2411 10.8338 18.2395 12.0032ZM6.52403 14.9975C5.79522 13.678 5.56889 12.1392 5.88689 10.6655C6.20489 9.19205 7.04573 7.8835 8.2539 6.98195C9.46212 6.08038 10.9558 5.6468 12.4589 5.76139C13.9621 5.87597 15.3728 6.53098 16.4303 7.60526L16.5177 7.59279C17.1091 7.5206 17.6654 7.27291 18.1147 6.88163C18.4765 6.52604 18.7073 5.90222 18.8197 5.17858L18.8757 4.76063C17.0622 3.02978 14.6637 2.04481 12.1571 2.00149C9.65047 1.95819 7.21938 2.85972 5.3471 4.52687C3.4748 6.19402 2.29842 8.50467 2.05184 10.9995C1.80526 13.4943 2.50654 15.9905 4.01625 17.992L4.04744 17.9046C4.39424 17.0038 4.95521 16.2007 5.68185 15.5652C5.95635 15.3408 6.24331 15.1536 6.51779 14.9914L6.52403 14.9975Z" fill="#410083"/>
</svg>

<svg xmlns="http://www.w3.org/2000/svg" width="24" height="24" fill="none" viewBox="0 0 24 24">
    <path fill="#410083" d="M18.24 12.003a6.238 6.238 0 0 1-11.005 4.024 6 6 0 0 0-.773.518 4.7 4.7 0 0 0-1.248 1.84c-.106.243-.187.48-.25.699A9.982 9.982 0 0 0 19.936 5.946c-.144.68-.47 1.31-.942 1.821a3.8 3.8 0 0 1-1.703.93c.621.99.95 2.137.948 3.306M6.524 14.998a6.238 6.238 0 0 1 9.906-7.393l.088-.012a3 3 0 0 0 1.597-.711c.362-.356.592-.98.705-1.703l.056-.418a9.98 9.98 0 0 0-14.86 13.231l.031-.087a5.95 5.95 0 0 1 1.635-2.34c.274-.224.561-.411.836-.574z"/>
</svg>
